assets/img/plans.svg

<svg width="142" height="142" viewBox="0 0 142 142" fill="none" xmlns="http://www.w3.org/2000/svg">
<path opacity="0.06" d="M102.491 113.111C98.2151 115.864 93.463 117.455 88.7644 118.762C84.6336 119.912 80.4891 120.869 76.3308 121.635C75.1773 121.848 74.025 122.045 72.8737 122.226L72.0769 122.349C71.369 122.459 70.6599 122.56 69.9496 122.653L69.8639 122.664C69.1697 122.759 68.4768 122.848 67.7851 122.93C65.5196 123.2 63.2066 123.405 61.0008 123.282C60.2484 123.241 59.5079 123.164 58.7878 123.037C58.3976 122.969 58.013 122.886 57.6338 122.787C57.0128 122.626 56.4109 122.425 55.8274 122.17C55.7294 122.128 55.632 122.085 55.5359 122.039C54.9515 121.766 54.4043 121.445 53.8886 121.083C51.9993 119.757 50.5544 117.883 49.4415 115.78C48.8854 114.729 48.4126 113.62 48.0092 112.493C47.9589 112.355 47.9106 112.216 47.8565 112.082C46.5298 108.198 45.818 104.021 44.415 100.176C43.9319 98.8501 43.3677 97.5701 42.7225 96.3356C42.4074 95.7337 42.076 95.1427 41.7282 94.5628C40.9041 93.2033 39.9786 91.917 38.961 90.7131C37.5961 89.0825 35.9984 87.5861 34.0659 86.6645C33.8087 86.5414 33.5454 86.4294 33.2759 86.3282C32.9345 86.1995 32.5826 86.09 32.2199 86C31.2283 85.7711 30.1607 85.6503 29.0267 85.6386C28.8062 85.6331 28.5856 85.6301 28.3638 85.6284C27.6677 85.6235 26.9685 85.6309 26.2743 85.6228C25.0019 85.6311 23.8047 85.5136 22.6941 85.2714C22.0975 85.1273 21.5351 84.9365 21.0099 84.7C19.612 84.0818 18.3879 83.1621 17.3046 82.093C16.7872 81.5726 16.2911 81.0297 15.8317 80.462L15.816 80.4461C15.6591 80.2523 15.5042 80.0553 15.3544 79.8531C14.6618 78.9427 14.0299 77.9773 13.4702 76.9637C11.5533 73.4902 10.4626 69.4727 10.6383 65.1943C10.8748 59.3855 13.6129 53.1239 18.3826 48.9135C21.818 45.8797 26.015 44.0755 30.0885 42.2731C37.6713 38.9149 45.247 35.2996 52.1989 30.4491C57.8411 26.5114 63.1725 21.7098 69.4153 19.3497C71.4142 18.5946 73.4637 18.1325 75.4869 17.9555C76.9944 17.8279 78.4243 17.8435 79.7624 18.0021C81.2787 18.1775 82.6973 18.4984 84.0066 18.9622C85.1434 19.3622 86.2041 19.8584 87.1836 20.4481C87.7165 20.7678 88.2301 21.1171 88.7194 21.4959C89.098 21.7858 89.4613 22.0938 89.8095 22.42L89.8615 22.4722C90.0747 22.6713 90.2803 22.8781 90.4781 23.0926C91.9315 24.6455 93.1512 26.4225 94.1258 28.4075C94.7476 29.6381 95.2932 30.9286 95.7824 32.2371C96.0751 33.0174 96.3513 33.8043 96.6112 34.5979C96.6905 34.8399 96.7685 35.0832 96.8432 35.3258C98.6217 41.042 99.2024 47.0497 100.583 52.8882C100.59 52.9183 100.596 52.9476 100.605 52.9751C100.899 54.1626 101.281 55.2858 101.749 56.3403C102.088 57.1194 102.469 57.8816 102.884 58.6306C103.515 59.7808 104.22 60.8963 104.959 61.9903L105.122 62.2317C106.206 63.8375 107.368 65.3899 108.459 66.9352C108.846 67.4841 109.226 68.0316 109.587 68.5853C109.82 68.9326 110.047 69.2807 110.267 69.6295C110.424 69.8806 110.583 70.1324 110.738 70.3867C110.894 70.641 111.058 70.9098 111.216 71.1739C111.319 71.3447 111.421 71.5161 111.52 71.6908C112.133 72.7378 112.719 73.8085 113.261 74.9044C113.59 75.5708 113.904 76.2473 114.198 76.932C114.411 77.4277 114.613 77.9281 114.805 78.433C114.948 78.8057 115.084 79.1822 115.211 79.5625C116.256 82.6405 116.853 85.8991 116.72 89.352C116.383 98.3079 110.668 107.848 102.491 113.111Z" fill="#EE4744"/>
<path d="M54.7362 99L54 97.7997C55.4492 96.2068 55.5179 86.3608 54.793 81.0213C54.29 77.3168 54.2136 74.1403 54.559 71.3101C55.1091 66.8038 56.7217 63.4672 59.352 61.3931C64.8088 57.0903 68.0804 45.287 68.1128 45.1683L69.2025 45.7009C69.0646 46.2068 65.7583 58.144 59.9406 62.7314C56.0736 65.7806 54.7257 71.8408 55.9342 80.7436C56.5039 84.9388 56.9837 96.5295 54.7362 99Z" fill="#D4D5E0"/>
<path d="M86.5762 40.9788C90.2337 32.3027 87.0925 22.8643 79.5603 19.8976C72.0281 16.9308 62.9571 21.5591 59.2996 30.2352C55.7485 38.6592 58.6069 47.8012 65.6704 51.0411C65.1957 51.8814 64.4801 52.5715 63.6096 53.0283C62.0799 53.7188 67.0512 54.3839 67.0512 54.3839C67.0584 53.478 67.2169 52.5792 67.5208 51.7222C74.7908 53.7819 83.1119 49.1968 86.5762 40.9788Z" fill="#EE706E"/>
<path opacity="0.2" d="M61.0252 38.6057C61.189 34.8157 63.4699 31.8074 66.1975 31.6734C66.0797 31.6572 65.9607 31.6459 65.8404 31.6407C62.9567 31.5152 60.4804 34.6196 60.3095 38.5746C60.1435 42.4146 62.2119 45.6443 64.9717 45.9437C64.9226 46.2311 60.8595 42.4393 61.0252 38.6057Z" fill="white"/>
<path d="M55.6451 121.86L54.6234 120.891C55.6109 118.977 53.1289 109.449 51.0468 104.479C49.6022 101.031 48.7062 97.9823 48.3073 95.1591C47.6723 90.664 48.3664 87.0237 50.3703 84.3395C54.5275 78.771 54.6327 66.5231 54.6333 66.4001L55.8237 66.6325C55.8214 67.1569 55.7174 79.5431 51.2852 85.4798C48.3392 89.426 48.6057 95.6286 52.0772 103.915C53.7133 107.82 57.1766 118.892 55.6451 121.86Z" fill="#D4D5E0"/>
<path d="M71.3833 57.5747C72.6706 48.2476 67.1936 39.9438 59.1502 39.0276C51.1068 38.1114 43.5428 44.9298 42.2555 54.2569C41.0056 63.3129 46.1328 71.4036 53.7941 72.7049C53.5531 73.6395 53.0405 74.4912 52.3179 75.1578C51.019 76.2207 55.9931 75.5764 55.9931 75.5764C55.7655 74.6996 55.6861 73.7903 55.7578 72.8839C63.3132 72.9918 70.164 66.4093 71.3833 57.5747Z" fill="#FF7E7B"/>
<path opacity="0.2" d="M46.0887 61.8955C45.266 58.1923 46.6905 54.6961 49.2905 53.8607C49.1725 53.8756 49.0546 53.8955 48.9371 53.9216C46.1192 54.5467 44.5308 58.1862 45.3893 62.0507C46.2228 65.8028 49.0566 68.3872 51.7999 67.9621C51.8268 68.2523 46.9209 65.6414 46.0887 61.8955Z" fill="white"/>
<path d="M51.7086 106.192L51.3261 104.837C53.1535 103.698 55.8939 94.2407 56.6466 88.905C57.1687 85.2032 57.9579 82.1254 59.0591 79.4954C60.8125 75.3079 63.2707 72.5347 66.3656 71.2531C72.7859 68.5942 79.1406 58.1232 79.2039 58.0178L80.108 58.8263C79.8379 59.2758 73.4135 69.8662 66.5686 72.7009C62.0187 74.5851 59.0754 80.0514 57.8203 88.9477C57.2291 93.14 54.5426 104.425 51.7086 106.192Z" fill="#D4D5E0"/>
<path d="M98.1112 59.0008C103.988 51.6443 103.528 41.7076 97.0851 36.8064C90.6418 31.9053 80.6547 33.8958 74.7782 41.2523C69.0725 48.395 69.3403 57.9698 75.2582 63.0064C74.5731 63.6862 73.697 64.1559 72.7351 64.3592C71.0754 64.6082 75.6792 66.5986 75.6792 66.5986C75.9321 65.7287 76.3289 64.9067 76.8541 64.1645C83.2914 68.1214 92.545 65.9689 98.1112 59.0008Z" fill="#E6615F"/>
<path opacity="0.2" d="M74.1653 49.7768C75.3524 46.1738 78.3646 43.8981 81.0261 44.5099C80.9171 44.4624 80.8056 44.4192 80.6913 44.3815C77.9501 43.4775 74.7237 45.7926 73.485 49.5524C72.2822 53.203 73.3956 56.8731 75.9703 57.9109C75.845 58.1741 72.9646 53.4213 74.1653 49.7768Z" fill="white"/>
</svg>

<svg width="142" height="142" viewBox="0 0 142 142" fill="none" xmlns="http://www.w3.org/2000/svg"><path opacity=".06" d="M102.491 113.111c-4.276 2.753-9.028 4.344-13.727 5.651a142.794 142.794 0 0 1-12.433 2.873c-1.154.213-2.306.41-3.457.591l-.797.123a89.66 89.66 0 0 1-2.127.304l-.086.011c-.694.095-1.387.184-2.079.266-2.265.27-4.578.475-6.784.352a18.576 18.576 0 0 1-2.213-.245 14.25 14.25 0 0 1-1.154-.25 12.036 12.036 0 0 1-2.098-.748 10.87 10.87 0 0 1-1.647-.956c-1.89-1.326-3.335-3.2-4.448-5.303a25.188 25.188 0 0 1-1.432-3.287c-.05-.138-.098-.277-.153-.411-1.326-3.884-2.038-8.061-3.441-11.906a31.737 31.737 0 0 0-1.693-3.84 30.266 30.266 0 0 0-3.761-5.623c-1.365-1.63-2.963-3.127-4.895-4.049A9.847 9.847 0 0 0 32.22 86a14.88 14.88 0 0 0-3.193-.361 38.36 38.36 0 0 0-.663-.01c-.696-.005-1.396.002-2.09-.006-1.272.008-2.47-.11-3.58-.352a9.565 9.565 0 0 1-1.684-.571c-1.398-.618-2.622-1.538-3.705-2.607a21.552 21.552 0 0 1-1.473-1.631l-.016-.016c-.157-.194-.312-.39-.462-.593a23.683 23.683 0 0 1-1.884-2.89c-1.917-3.473-3.007-7.49-2.832-11.769.237-5.809 2.975-12.07 7.745-16.28 3.435-3.034 7.632-4.839 11.706-6.64 7.582-3.36 15.158-6.974 22.11-11.825 5.642-3.938 10.974-8.74 17.216-11.1a22.843 22.843 0 0 1 6.072-1.393 21.194 21.194 0 0 1 4.275.046c1.517.175 2.935.496 4.245.96 1.136.4 2.197.896 3.177 1.486a15.713 15.713 0 0 1 2.626 1.972l.052.052c.213.2.418.406.616.62a21.785 21.785 0 0 1 3.648 5.316 38.05 38.05 0 0 1 1.656 3.83 59.032 59.032 0 0 1 1.061 3.088c1.779 5.716 2.36 11.724 3.74 17.562.007.03.013.06.022.087.294 1.188.676 2.31 1.144 3.365.339.78.72 1.542 1.135 2.29a42.83 42.83 0 0 0 2.075 3.36l.163.242c1.084 1.605 2.246 3.158 3.337 4.703.387.55.767 1.097 1.128 1.65.233.348.46.696.68 1.044.157.252.316.503.471.758.156.254.32.523.478.787.103.17.205.342.304.517a51.961 51.961 0 0 1 1.741 3.213c.329.667.643 1.343.937 2.028.213.496.415.996.607 1.501.143.373.279.75.406 1.13 1.045 3.078 1.642 6.336 1.509 9.789-.337 8.956-6.052 18.496-14.229 23.759z" fill="#EE4744"/><path d="M54.736 99L54 97.8c1.45-1.593 1.518-11.44.793-16.779-.503-3.704-.58-6.88-.234-9.71.55-4.507 2.163-7.844 4.793-9.918 5.457-4.303 8.728-16.106 8.76-16.225l1.09.533c-.137.506-3.444 12.443-9.261 17.03-3.867 3.05-5.215 9.11-4.007 18.013.57 4.195 1.05 15.785-1.198 18.256z" fill="#D4D5E0"/><path d="M86.576 40.979c3.658-8.676.517-18.115-7.016-21.081-7.532-2.967-16.603 1.661-20.26 10.337-3.551 8.424-.693 17.566 6.37 20.806a5.063 5.063 0 0 1-2.06 1.987c-1.53.69 3.441 1.356 3.441 1.356a8.155 8.155 0 0 1 .47-2.662c7.27 2.06 15.59-2.525 19.055-10.743z" fill="#EE706E"/><path opacity=".2" d="M61.025 38.606c.164-3.79 2.445-6.799 5.173-6.933a3.835 3.835 0 0 0-.358-.032c-2.883-.126-5.36 2.979-5.53 6.934-.166 3.84 1.902 7.07 4.662 7.369-.05.287-4.112-3.505-3.947-7.338z" fill="#fff"/><path d="M55.645 121.86l-1.022-.969c.988-1.914-1.494-11.442-3.576-16.412-1.445-3.448-2.34-6.497-2.74-9.32-.635-4.495.06-8.135 2.063-10.82 4.158-5.568 4.263-17.816 4.263-17.939l1.19.232c-.002.525-.106 12.911-4.538 18.848-2.946 3.946-2.68 10.149.792 18.435 1.636 3.905 5.1 14.977 3.568 17.945z" fill="#D4D5E0"/><path d="M71.383 57.575c1.288-9.327-4.19-17.631-12.233-18.547-8.043-.917-15.607 5.902-16.895 15.229-1.25 9.056 3.878 17.147 11.54 18.448a5.063 5.063 0 0 1-1.477 2.453c-1.299 1.063 3.675.418 3.675.418a8.153 8.153 0 0 1-.235-2.692c7.555.108 14.406-6.475 15.625-15.31z" fill="#FF7E7B"/><path opacity=".2" d="M46.089 61.895c-.823-3.703.602-7.199 3.202-8.034a3.856 3.856 0 0 0-.354.06c-2.818.626-4.406 4.265-3.548 8.13.834 3.752 3.668 6.336 6.41 5.911.028.29-4.878-2.32-5.71-6.067z" fill="#fff"/><path d="M51.709 106.192l-.383-1.355c1.828-1.139 4.568-10.596 5.32-15.932.523-3.702 1.312-6.78 2.413-9.41 1.754-4.187 4.212-6.96 7.307-8.242 6.42-2.659 12.775-13.13 12.838-13.235l.904.808c-.27.45-6.695 11.04-13.54 13.875-4.55 1.884-7.493 7.35-8.748 16.247-.59 4.192-3.277 15.477-6.111 17.244z" fill="#D4D5E0"/><path d="M98.111 59c5.877-7.356 5.417-17.292-1.026-22.194-6.443-4.9-16.43-2.91-22.307 4.446-5.706 7.143-5.438 16.718.48 21.754a5.064 5.064 0 0 1-2.523 1.353c-1.66.25 2.944 2.24 2.944 2.24.253-.87.65-1.692 1.175-2.434C83.291 68.12 92.545 65.969 98.111 59z" fill="#E6615F"/><path opacity=".2" d="M74.165 49.777c1.187-3.603 4.2-5.879 6.861-5.267a3.881 3.881 0 0 0-.335-.128c-2.74-.904-5.967 1.41-7.206 5.17-1.203 3.651-.09 7.321 2.485 8.359-.125.263-3.005-4.49-1.805-8.134z" fill="#fff"/></svg>
